!!!COM: Music21
!!!OTL: Xardín dos meus amores
!!!OMV: pezas_valses_xardin-dos-meus-amores_xardin-dos-meus-amores-partitura.musicxml
**kern
*I"Bagpipes
*I'Bag
*clefG^2
*k[]
*M3/4
=1
!LO:TX:a:t=Vivace
*MM160
!LO:TX:a:t=[quarter]=160
2gg
4ee
=
2ccc
4gg
=
2ee
4cc
=
2.aa
=
2bb
4aa
=
2gg
4ee
=
2ff
4cc
=
4cc
4cc
4cc
=
4cc
2r
=||
*k[b-e-a-]
*E-:
4gg
4ee-
4gg
=
4ee-
4.gg
8ff
=
12ee-L
12ff
12ee-J
[2dd
=
2.dd]
!!linebreak:original
=
4ff
4dd
4ff
!!linebreak:original
=
4dd
4.ff
8ee-
=
12ddL
12ee-
12ddJ
[2cc
=
2.cc]
=
4gg
4ee-
4cc
=
4ee-
4gg
4ccc
=
4bb-
[2aa-
=
4aa-]
4bb-
4gg
=
4bb-
[2aa-
=
4aa-]
4ccc
4bb-
=
12aa-L
12bb-
12aa-J
[2gg
=
2.gg]
=||
4gg
4ee-
4gg
!!linebreak:original
=
4ee-
4.gg
8ff
=
12ee-L
12ff
12ee-J
[2dd
=
2.dd]
=
4ff
4dd
4ff
!!linebreak:original
=
4dd
4.ff
8ee-
=
12ddL
12ee-
12ddJ
[2cc
=
2.cc]
=
4gg
4ee-
4cc
=
4ee-
4gg
4ccc
=
4bb-
[2aa-
=
4aa-]
4bb-
4aa-
!!linebreak:original
=
12aa-L
12bb-
12aa-J
[2gg
=
4gg]
4ff
4ee-
=
12ddL
12ee-
12ddJ
4cc
4dd
=
4ee-
4ee-
4ff
=
4gg
4ee-
4cc
=
4ee-
4gg
4ccc
=
4bb-
[2aa-
=
4aa-]
4bb-
4aa-
=
12aa-L
12bb-
12aa-J
[2gg
=
4gg]
4ff
4gg
=
24ffLL
24gg
24ffJJ
8r
4ee-
4gg
!!linebreak:original
=
4ccc
2r
=||
*k[]
*C:
2gg
4ee
=
2ccc
4gg
=
2ee
4aa
=
2.gg
=
2ff
4ee
=
2bb
4aa
=
2aa
4ccc
=
2.ee
=
2gg
4ee
=
2ccc
4gg
=
2ee
4cc
=
2.aa
=
2bb
4aa
=
2gg
4dd
!!linebreak:original
=
2ff
4b
!!linebreak:original
=
2cc
4gg
=||
12ggL
12aa
12ggJ
8ff#XL
8ggJ
8aaL
8bbJ
=
8cccL
8ggJ
8eeL
8ccJ
8ggL
8eeJ
=
8ccL
8eeJ
8ggL
8ccJ
8eeL
8aaJ
=
8ggL
8cccJ
8eeL
8ggJ
8ccL
8eeJ
=
12ffL
12gg
12ffJ
8eeL
8ffJ
8ggL
8ffJ
=
8aaL
8ggJ
8ffL
8eeJ
8ddL
8ccJ
!!linebreak:original
=
8bL
8ccJ
8ddL
8eeJ
8ffL
8aaJ
=
8ggL
8cccJ
8eeL
8ggJ
8ccL
8eeJ
=
12ggL
12aa
12ggJ
8ff#XL
8ggJ
8aaL
8ggJ
=
8cccL
8ggJ
8eeL
8ccJ
8ggL
8eeJ
=
8ccL
8eeJ
8ggL
8ccJ
8eeL
8ggJ
=
8aaL
8cccJ
8ffL
8aaJ
8ccL
8eeJ
=
12ffL
12gg
12ffJ
8eeL
8ffJ
8ggL
8ffJ
!!linebreak:original
=
8aaL
8ggJ
8ffL
8eeJ
8ddL
8ccJ
=
8bL
8aaJ
8ggL
8ffJ
8eeL
8ddJ
=
8ccL
8eeJ
8ggL
8ccJ
8eeL
8aaJ
=||
12ggL
12aa
12ggJ
8ff#XL
8ggJ
8aaL
8bbJ
=
8cccL
8ggJ
8eeL
8ccJ
8ggL
8eeJ
=
8ccL
8eeJ
8ggL
8ccJ
8eeL
8aaJ
=
8ggL
8cccJ
8eeL
8ggJ
8ccL
8eeJ
!!linebreak:original
=
12ffL
12gg
12ffJ
8eeL
8ffJ
8ggL
8ffJ
=
8aaL
8ggJ
8ffL
8eeJ
8ddL
8ccJ
!!pagebreak:original
=
8bL
8ccJ
8ddL
8eeJ
8ffL
8aaJ
=
8ggL
8cccJ
8eeL
8ggJ
8ccL
8eeJ
=
12ggL
12aa
12ggJ
8ff#XL
8ggJ
8aaL
8ggJ
=
8cccL
8ggJ
8eeL
8ccJ
8ggL
8eeJ
=
8ccL
8eeJ
8ggL
8ccJ
8eeL
8ggJ
=
8aaL
8cccJ
8ffL
8aaJ
8ccL
8eeJ
=
12ffL
12gg
12ffJ
8eeL
8ffJ
8ggL
8ffJ
!!linebreak:original
=
8aaL
8ggJ
8ffL
8eeJ
8ddL
8ccJ
=
8bL
8aaJ
8ggL
8ffJ
8eeL
8ddJ
=
8ccL
8eeJ
8ggL
8ccJ
8eeL
8ggJ
=
4ccc
2r
==
*-
